svgs/sharp-regular/nfc-pen.svg

<svg xmlns="http://www.w3.org/2000/svg" viewBox="0 0 576 512"><!--! Font Awesome Pro 6.6.0 by @fontawesome - https://fontawesome.com License - https://fontawesome.com/license (Commercial License) Copyright 2024 Fonticons, Inc. --><path d="M48 80l352 0 0 204.4 48-48L448 80l0-48-48 0L48 32 0 32 0 80 0 432l0 48 48 0 210 0 6.9-48L48 432 48 80zM368 316.4L368 136l0-24-24 0-120 0-24 0 0 24 0 78.4c-14.3 8.3-24 23.8-24 41.6c0 26.5 21.5 48 48 48s48-21.5 48-48c0-17.8-9.7-33.3-24-41.6l0-54.4 72 0 0 192-192 0 0-192 8 0 24 0 0-48-24 0-32 0-24 0 0 24 0 240 0 24 24 0 180.4 0L368 316.4zm137-92.6l-41.3 41.3 71 71L576 294.8l-71-71zm-63.9 63.9L299.9 429 288 511.9 370.9 500 512.1 358.7l-71-71z"/></svg>

<svg xmlns="http://www.w3.org/2000/svg" viewBox="0 0 576 512"><!--! Font Awesome Pro 6.4.0 by @fontawesome - https://fontawesome.com License - https://fontawesome.com/license (Commercial License) Copyright 2023 Fonticons, Inc. --><path d="M48 80H400V284.4l48-48V80 32H400 48 0V80 432v48H48 258l6.9-48H48V80zM368 316.4V136 112H344 224 200v24 78.4c-14.3 8.3-24 23.8-24 41.6c0 26.5 21.5 48 48 48s48-21.5 48-48c0-17.8-9.7-33.3-24-41.6V160h72V352H128V160h8 24V112H136 104 80v24V376v24h24H284.4L368 316.4zm137-92.6l-41.3 41.3 71 71L576 294.8l-71-71zm-63.9 63.9L299.9 429 288 511.9 370.9 500 512.1 358.7l-71-71z"/></svg>
